.local/share/icons/Gruvbox-Plus-Dark/panel/16/dropboxstatus-x.svg

<svg xmlns="http://www.w3.org/2000/svg" width="16" height="16" version="1.1">
 <defs>
  <style id="current-color-scheme" type="text/css">
   .ColorScheme-Text { color:#ebdbb2; } .ColorScheme-Highlight { color:#458588; }
  </style>
 </defs>
 <path style="fill:currentColor" class="ColorScheme-Text" d="M 4.4472656 1 L 4.4492188 1.0039062 L 0.0078125 3.5078125 L 4 5.9863281 L 0 9.0039062 L 4.4492188 11.5 L 8 9.0097656 L 4 6 L 8 3.5078125 L 12 6.0136719 L 10.263672 7.3144531 A 5 5 0 0 1 12 7 A 5 5 0 0 1 13.792969 7.3378906 L 12 5.9960938 L 15.990234 3.5058594 L 11.550781 1 L 8 3.4921875 L 4.4472656 1 z M 12 8 C 9.791 8 8 9.7909998 8 12 C 8 14.209 9.791 16 12 16 C 14.209 16 16 14.209 16 12 C 16 9.7909998 14.209 8 12 8 z M 15.970703 8.9667969 A 5 5 0 0 1 15.990234 8.9960938 L 16 8.9902344 L 15.970703 8.9667969 z M 10.357422 9.6328125 L 10.353516 9.6464844 L 12 11.292969 L 13.646484 9.6464844 L 14.353516 10.353516 L 12.707031 12 L 14.353516 13.646484 L 13.646484 14.353516 L 12.003906 12.693359 L 10.357422 14.339844 L 9.6503906 13.632812 L 11.296875 11.986328 L 9.6503906 10.339844 L 10.357422 9.6328125 z M 7.2128906 10.5625 L 4.4492188 12.501953 L 3.5605469 12.003906 L 3.5605469 12.375 L 8 15 L 8.0058594 14.998047 A 5 5 0 0 1 7 12 A 5 5 0 0 1 7.2128906 10.5625 z"/>
</svg>

<svg width="16" height="16" version="1.1" xmlns="http://www.w3.org/2000/svg">
  <defs>
    <style id="current-color-scheme" type="text/css">.ColorScheme-Text { color:#ebdbb2; } .ColorScheme-Highlight { color:#458588; } .ColorScheme-NeutralText { color:#fe8019; } .ColorScheme-PositiveText { color:#689d6a; } .ColorScheme-NegativeText { color:#fb4934; }</style>
  </defs>
  <path class="ColorScheme-Text" d="m4.446 1.014 0.00195 0.0039-4.44 2.504 3.991 2.479-3.999 3.018 4.448 2.496 3.55-2.49-3.999-3.01 3.999-2.492 3.999 2.506-1.736 1.301c0.5554-0.2069 1.143-0.3134 1.736-0.3145 0.6132 0.0017 1.221 0.1162 1.793 0.3379l-1.793-1.342 3.989-2.49-4.438-2.506-3.55 2.492zm7.551 7c-2.208 0-3.999 1.791-3.999 4 0 2.209 1.791 4 3.999 4s3.999-1.791 3.999-4c0-2.209-1.791-4-3.999-4zm-1.642 1.633-0.0039 0.01367 1.646 1.646 1.646-1.646 0.7069 0.707-1.646 1.646 1.646 1.646-0.7069 0.707-1.642-1.66-1.646 1.646-0.7069-0.707 1.646-1.646-1.646-1.646zm-3.144 0.9297-2.763 1.939-0.8885-0.498v0.3711l4.438 2.625 0.0059-2e-3c-0.6506-0.8642-1.003-1.916-1.006-2.998 5.817e-4 -0.487 0.07228-0.9713 0.2128-1.438z" fill="currentColor"/>
</svg>
